logo/logo-white-white.svg

<svg width="5031" height="1000" fill="none" xmlns="http://www.w3.org/2000/svg"><g clip-path="url(#prefix__clip6_1)"><g clip-path="url(#prefix__clip6_23)"><g mask="url(#prefix__mask6_26)" fill="#FFF" fill-rule="evenodd" clip-path="url(#prefix__clip6_24)"><path d="M840.12 3.63L953.54 89.1c7.18 5.42 8.63 15.65 3.21 22.84L686.84 470.11 547.38 365.02 817.28 6.85c5.42-7.2 15.64-8.64 22.84-3.22zM686.84 470.11L581.6 609.77l-34.22-244.75 139.46 105.09zM590.44 670.18l105.24-139.67 34.23 244.76-139.47-105.09zM758.87 981.08l-20.63-145.83-139.65-105.23 26.02 183.97 108.89 82.05c11.35 8.56 27.36-.88 25.37-14.96zM53.78 449.75L506.28 387l69.84 490.44L46.38 478.26c-11.33-8.54-6.66-26.56 7.4-28.51z"/></g></g><path d="M3171.31 247.62V766h79.1V247.62h-79.1zm1486.08 0V766h79.1v-37.81q1.25 1.42 2.53 2.8 13.96 14.95 32.79 25.34 1.11.6 2.21 1.17 30.15 15.7 68.46 15.7 30.46 0 57.11-10.07 14.27-5.39 27.43-13.66 13.96-8.76 25.75-19.81 20.17-18.9 34.02-44.52 3.38-6.27 6.23-12.76 15.75-35.78 15.75-78.48 0-46.45-18.12-84.21-1.84-3.81-3.86-7.54-13.83-25.7-33.96-44.76-11.83-11.2-25.81-20.11-13.79-8.79-28.78-14.37-26.07-9.71-55.76-9.71-35.17 0-63.76 13.71-3.14 1.5-6.2 3.17-17.48 9.53-30.84 23.09-2.68 2.71-5.19 5.59V247.62h-79.1zm-3302.72 14.41V766h82.79V516.07L1659.3 766h107.93l-238-263.84 230.79-240.13H1654.2l-216.74 229.1v-229.1h-82.79zm2511.36 0V766h320.45v-75.59h-237.66V262.03h-82.79zM2263.37 492.48V766h79.12V492.48h82.79v-72.07h-82.79V276.44h-79.12v143.97h-82.78v72.07h82.78zm-382.59 270.65q26.66 10.07 57.11 10.07 37.54 0 67.32-15.2 1.59-.81 3.17-1.67 19.65-10.77 33.9-26.45.72-.79 1.43-1.6V766h79.28V420.41h-79.28v38.22q-2.59-2.99-5.36-5.79-13.16-13.35-30.32-22.76-.89-.49-1.78-.97-29.95-15.91-68.36-15.91-29.68 0-55.75 9.71-15 5.58-28.8 14.37-13.98 8.91-25.79 20.11-20.13 19.06-33.97 44.76-2.02 3.73-3.85 7.54-18.13 37.76-18.13 84.21 0 42.7 15.74 78.48 2.86 6.49 6.24 12.76 13.86 25.62 34.02 44.52 11.8 11.05 25.74 19.81 13.18 8.27 27.44 13.66zm684.01-1.89q30.93 11.96 66.49 11.96 39.01 0 72.09-14 10.3-4.36 20.02-10.08 21.09-12.34 37.69-29.12 15.79-15.95 27.53-35.92 7.1-12.14 12.11-25.08 11.97-30.94 11.97-66.5 0-37.02-12.96-68.73-4.71-11.51-11.12-22.33-11.79-19.97-27.68-35.85-16.55-16.55-37.54-28.66-8.93-5.18-18.36-9.22-33.76-14.51-73.75-14.51-35.56 0-66.49 11.97-12.95 5.01-25.09 12.11-22.08 12.98-39.24 30.71-14.69 15.16-25.81 33.81-5.96 9.98-10.45 20.58-13.62 32.18-13.62 70.12 0 35.56 11.97 66.5 5.01 12.94 12.1 25.08 12.05 20.48 28.31 36.74 16.26 16.26 36.74 28.3 12.14 7.11 25.09 12.12zm392.58-187.55V766h-79.1V420.41h79.1v36.34q.95-1.4 1.93-2.77 9.13-12.75 21.16-21.52 26.44-19.26 66.91-19.26 26.01 0 46.75 9.32 20.92 9.32 39.03 30.23l-51.86 53.27q-8.83-9.5-19.7-13.78-.61-.24-1.22-.46-11.42-4.4-26.54-4.4-22.38 0-39.49 9.49-8.3 4.6-15.35 11.43-21.62 20.74-21.62 65.39zm1369.97 189.44q26.66 10.07 57.11 10.07 37.54 0 67.32-15.2 1.6-.81 3.17-1.67 19.65-10.77 33.9-26.45.72-.79 1.43-1.6V766h79.27V420.41h-79.27v38.22q-2.59-2.99-5.36-5.79-13.16-13.35-30.32-22.76-.88-.49-1.78-.97-29.95-15.91-68.36-15.91-29.68 0-55.75 9.71-15 5.58-28.8 14.37-13.98 8.91-25.79 20.11-20.13 19.06-33.97 44.76-2.02 3.73-3.85 7.54-18.13 37.76-18.13 84.21 0 42.7 15.74 78.48 2.85 6.49 6.24 12.76 13.86 25.62 34.02 44.52 11.8 11.05 25.74 19.81 13.18 8.27 27.44 13.66zm-828.51 6.38l-63.98 140.45h-87.89l86.78-178.82-131.43-310.73h87.19l88.5 225.2 93.61-225.2h87.89l-160.67 349.1zm-1498.37-83.45q-21.24 12.26-49.56 12.26-25.27 0-45.27-10.26-2.82-1.45-5.53-3.1-7.48-4.55-13.88-10.3-12.4-11.14-20.75-26.79-12.48-23.73-12.48-54.67 0-30.93 12.48-54.67 8.68-16.4 21.75-27.75 5.98-5.2 12.88-9.34 2.71-1.64 5.53-3.09 20-10.26 45.27-10.26 27.98 0 49.17 11.99 1.18.66 2.34 1.36 7.77 4.67 14.31 10.67 11.95 10.97 19.79 26.42 12.3 23.74 12.3 54.67 0 34.85-15.49 60.23-4.99 8.17-11.58 15.36-9.56 10.5-21.28 17.27zm2446.56 0q-21.25 12.26-49.56 12.26-25.27 0-45.27-10.26-2.82-1.45-5.53-3.1-7.48-4.55-13.89-10.3-12.39-11.14-20.75-26.79-12.48-23.73-12.48-54.67 0-30.93 12.48-54.67 8.69-16.4 21.75-27.75 5.98-5.2 12.89-9.34 2.71-1.64 5.53-3.09 20-10.26 45.27-10.26 27.98 0 49.17 11.99 1.18.66 2.33 1.36 7.78 4.67 14.31 10.67 11.96 10.97 19.79 26.42 12.31 23.74 12.31 54.67 0 34.85-15.49 60.23-4.99 8.17-11.59 15.36-9.55 10.5-21.27 17.27zm428.17 1.69q-20.08 10.57-45.71 10.57-24.49 0-44.28-9.64-3.51-1.71-6.89-3.72-9.13-5.47-16.59-12.68-10.76-10.39-18.03-24.41-12.13-23.73-12.13-54.67 0-30.93 12.13-54.67 7.6-14.76 19.03-25.44 7.07-6.61 15.59-11.65 3.38-2.01 6.89-3.72 19.79-9.63 44.28-9.63 25.63 0 45.71 10.56 2.5 1.32 4.91 2.79 6.9 4.14 12.88 9.34 13.06 11.35 21.75 27.75 12.66 23.74 12.66 54.67 0 30.94-12.66 54.67-8.35 15.65-20.75 26.79-6.4 5.75-13.88 10.3-2.41 1.48-4.91 2.79zm-2196.4-1.61q-20.99 10.77-47.51 10.77-23.64 0-43.14-8.98-4.28-1.97-8.36-4.38-9.67-5.69-17.51-13.27-10.56-10.2-17.82-23.82l-.18-.34q-12.3-23.6-12.3-53.62 0-30.23 12.48-53.26 6.25-11.38 14.95-20.4 8.91-9.23 20.38-15.99 4.08-2.41 8.36-4.38 19.5-8.98 43.14-8.98 27.28 0 48.41 11.4 1.75.94 3.45 1.96 10.06 6.02 18.2 14.01 9.91 9.73 16.96 22.38.19.34.37.67 12.63 22.8 12.63 52.59 0 29.36-11.93 52.59-.36.69-.72 1.37-7.02 13.34-17.25 23.4-7.98 7.84-17.91 13.69-2.31 1.37-4.7 2.59z" fill="#FFF" fill-rule="evenodd"/></g></svg>

<svg width="5031.000000" height="1000.000000" viewBox="0 0 5031 1000" fill="none" xmlns="http://www.w3.org/2000/svg" xmlns:xlink="http://www.w3.org/1999/xlink">
	<defs>
		<clipPath id="clip6_24">
			<rect id="mark" width="920.742004" height="1000.000000" transform="translate(40.039093 0.000000)" fill="white" fill-opacity="0"/>
		</clipPath>
		<clipPath id="clip6_23">
			<rect id="mark-white" width="1000.000000" height="1000.000000" fill="white" fill-opacity="0"/>
		</clipPath>
		<clipPath id="clip6_1">
			<rect id="logo-white-white" width="5031.000000" height="1000.000000" fill="white" fill-opacity="0"/>
		</clipPath>
	</defs>
	<g clip-path="url(#clip6_1)">
		<g clip-path="url(#clip6_23)">
			<g clip-path="url(#clip6_24)">
				<mask id="mask6_26" mask-type="alpha" maskUnits="userSpaceOnUse" x="40.039093" y="0.000000" width="920.742065" height="1000.000000">
					<rect id="rect" x="40.039093" width="920.742004" height="1000.000000" fill="#000000" fill-opacity="1.000000"/>
				</mask>
				<g mask="url(#mask6_26)">
					<path id="path" d="M840.12 3.63L953.54 89.1C960.72 94.52 962.17 104.75 956.75 111.94L686.84 470.11L547.38 365.02L817.28 6.85C822.7 -0.35 832.92 -1.79 840.12 3.63ZM686.84 470.11L581.6 609.77L547.38 365.02L686.84 470.11Z" fill="#FFFFFF" fill-opacity="1.000000" fill-rule="evenodd"/>
					<path id="path" d="M590.44 670.18L695.68 530.51L729.91 775.27L590.44 670.18Z" fill="#FFFFFF" fill-opacity="1.000000" fill-rule="evenodd"/>
					<path id="path" d="M758.87 981.08L738.24 835.25L598.59 730.02L624.61 913.99L733.5 996.04C744.85 1004.6 760.86 995.16 758.87 981.08Z" fill="#FFFFFF" fill-opacity="1.000000" fill-rule="evenodd"/>
					<path id="path" d="M53.78 449.75L506.28 387L576.12 877.44L46.38 478.26C35.05 469.72 39.72 451.7 53.78 449.75Z" fill="#FFFFFF" fill-opacity="1.000000" fill-rule="evenodd"/>
				</g>
			</g>
		</g>
		<path id="wordmark" d="M3171.31 247.62L3171.31 766L3250.41 766L3250.41 247.62L3171.31 247.62ZM4657.39 247.62L4657.39 766L4736.49 766L4736.49 728.19Q4737.74 729.61 4739.02 730.99Q4752.98 745.94 4771.81 756.33Q4772.92 756.93 4774.02 757.5Q4804.17 773.2 4842.48 773.2Q4872.94 773.2 4899.59 763.13Q4913.86 757.74 4927.02 749.47Q4940.98 740.71 4952.77 729.66Q4972.94 710.76 4986.79 685.14Q4990.17 678.87 4993.02 672.38Q5008.77 636.6 5008.77 593.9Q5008.77 547.45 4990.65 509.69Q4988.81 505.88 4986.79 502.15Q4972.96 476.45 4952.83 457.39Q4941 446.19 4927.02 437.28Q4913.23 428.49 4898.24 422.91Q4872.17 413.2 4842.48 413.2Q4807.31 413.2 4778.72 426.91Q4775.58 428.41 4772.52 430.08Q4755.04 439.61 4741.68 453.17Q4739 455.88 4736.49 458.76L4736.49 247.62L4657.39 247.62ZM1354.67 262.03L1354.67 766L1437.46 766L1437.46 516.07L1659.3 766L1767.23 766L1529.23 502.16L1760.02 262.03L1654.2 262.03L1437.46 491.13L1437.46 262.03L1354.67 262.03ZM3866.03 262.03L3866.03 766L4186.48 766L4186.48 690.41L3948.82 690.41L3948.82 262.03L3866.03 262.03ZM2263.37 492.48L2263.37 766L2342.49 766L2342.49 492.48L2425.28 492.48L2425.28 420.41L2342.49 420.41L2342.49 276.44L2263.37 276.44L2263.37 420.41L2180.59 420.41L2180.59 492.48L2263.37 492.48ZM1880.78 763.13Q1907.44 773.2 1937.89 773.2Q1975.43 773.2 2005.21 758Q2006.8 757.19 2008.38 756.33Q2028.03 745.56 2042.28 729.88Q2043 729.09 2043.71 728.28L2043.71 766L2122.99 766L2122.99 420.41L2043.71 420.41L2043.71 458.63Q2041.12 455.64 2038.35 452.84Q2025.19 439.49 2008.03 430.08Q2007.14 429.59 2006.25 429.11Q1976.3 413.2 1937.89 413.2Q1908.21 413.2 1882.14 422.91Q1867.14 428.49 1853.34 437.28Q1839.36 446.19 1827.55 457.39Q1807.42 476.45 1793.58 502.15Q1791.56 505.88 1789.73 509.69Q1771.6 547.45 1771.6 593.9Q1771.6 636.6 1787.34 672.38Q1790.2 678.87 1793.58 685.14Q1807.44 710.76 1827.6 729.66Q1839.4 740.71 1853.34 749.47Q1866.52 757.74 1880.78 763.13ZM2564.79 761.24Q2595.72 773.2 2631.28 773.2Q2670.29 773.2 2703.37 759.2Q2713.67 754.84 2723.39 749.12Q2744.48 736.78 2761.08 720Q2776.87 704.05 2788.61 684.08Q2795.71 671.94 2800.72 659Q2812.69 628.06 2812.69 592.5Q2812.69 555.48 2799.73 523.77Q2795.02 512.26 2788.61 501.44Q2776.82 481.47 2760.93 465.59Q2744.38 449.04 2723.39 436.93Q2714.46 431.75 2705.03 427.71Q2671.27 413.2 2631.28 413.2Q2595.72 413.2 2564.79 425.17Q2551.84 430.18 2539.7 437.28Q2517.62 450.26 2500.46 467.99Q2485.77 483.15 2474.65 501.8Q2468.69 511.78 2464.2 522.38Q2450.58 554.56 2450.58 592.5Q2450.58 628.06 2462.55 659Q2467.56 671.94 2474.65 684.08Q2486.7 704.56 2502.96 720.82Q2519.22 737.08 2539.7 749.12Q2551.84 756.23 2564.79 761.24ZM2957.37 573.69L2957.37 766L2878.27 766L2878.27 420.41L2957.37 420.41L2957.37 456.75Q2958.32 455.35 2959.3 453.98Q2968.43 441.23 2980.46 432.46Q3006.9 413.2 3047.37 413.2Q3073.38 413.2 3094.12 422.52Q3115.04 431.84 3133.15 452.75L3081.29 506.02Q3072.46 496.52 3061.59 492.24Q3060.98 492 3060.37 491.78Q3048.95 487.38 3033.83 487.38Q3011.45 487.38 2994.34 496.87Q2986.04 501.47 2978.99 508.3Q2957.37 529.04 2957.37 573.69ZM4327.34 763.13Q4354 773.2 4384.45 773.2Q4421.99 773.2 4451.77 758Q4453.37 757.19 4454.94 756.33Q4474.59 745.56 4488.84 729.88Q4489.56 729.09 4490.27 728.28L4490.27 766L4569.54 766L4569.54 420.41L4490.27 420.41L4490.27 458.63Q4487.68 455.64 4484.91 452.84Q4471.75 439.49 4454.59 430.08Q4453.71 429.59 4452.81 429.11Q4422.86 413.2 4384.45 413.2Q4354.77 413.2 4328.7 422.91Q4313.7 428.49 4299.9 437.28Q4285.92 446.19 4274.11 457.39Q4253.98 476.45 4240.14 502.15Q4238.12 505.88 4236.29 509.69Q4218.16 547.45 4218.16 593.9Q4218.16 636.6 4233.9 672.38Q4236.75 678.87 4240.14 685.14Q4254 710.76 4274.16 729.66Q4285.96 740.71 4299.9 749.47Q4313.08 757.74 4327.34 763.13ZM3498.83 769.51L3434.85 909.96L3346.96 909.96L3433.74 731.14L3302.31 420.41L3389.5 420.41L3478 645.61L3571.61 420.41L3659.5 420.41L3498.83 769.51ZM2000.46 686.06Q1979.22 698.32 1950.9 698.32Q1925.63 698.32 1905.63 688.06Q1902.81 686.61 1900.1 684.96Q1892.62 680.41 1886.22 674.66Q1873.82 663.52 1865.47 647.87Q1852.99 624.14 1852.99 593.2Q1852.99 562.27 1865.47 538.53Q1874.15 522.13 1887.22 510.78Q1893.2 505.58 1900.1 501.44Q1902.81 499.8 1905.63 498.35Q1925.63 488.09 1950.9 488.09Q1978.88 488.09 2000.07 500.08Q2001.25 500.74 2002.41 501.44Q2010.18 506.11 2016.72 512.11Q2028.67 523.08 2036.51 538.53Q2048.81 562.27 2048.81 593.2Q2048.81 628.05 2033.32 653.43Q2028.33 661.6 2021.74 668.79Q2012.18 679.29 2000.46 686.06ZM4447.02 686.06Q4425.77 698.32 4397.46 698.32Q4372.19 698.32 4352.19 688.06Q4349.37 686.61 4346.66 684.96Q4339.18 680.41 4332.77 674.66Q4320.38 663.52 4312.02 647.87Q4299.54 624.14 4299.54 593.2Q4299.54 562.27 4312.02 538.53Q4320.71 522.13 4333.77 510.78Q4339.75 505.58 4346.66 501.44Q4349.37 499.8 4352.19 498.35Q4372.19 488.09 4397.46 488.09Q4425.44 488.09 4446.63 500.08Q4447.81 500.74 4448.96 501.44Q4456.74 506.11 4463.27 512.11Q4475.23 523.08 4483.06 538.53Q4495.37 562.27 4495.37 593.2Q4495.37 628.05 4479.88 653.43Q4474.89 661.6 4468.29 668.79Q4458.74 679.29 4447.02 686.06ZM4875.19 687.75Q4855.11 698.32 4829.48 698.32Q4804.99 698.32 4785.2 688.68Q4781.69 686.97 4778.31 684.96Q4769.18 679.49 4761.72 672.28Q4750.96 661.89 4743.69 647.87Q4731.56 624.14 4731.56 593.2Q4731.56 562.27 4743.69 538.53Q4751.29 523.77 4762.72 513.09Q4769.79 506.48 4778.31 501.44Q4781.69 499.43 4785.2 497.72Q4804.99 488.09 4829.48 488.09Q4855.11 488.09 4875.19 498.65Q4877.69 499.97 4880.1 501.44Q4887 505.58 4892.98 510.78Q4906.04 522.13 4914.73 538.53Q4927.39 562.27 4927.39 593.2Q4927.39 624.14 4914.73 647.87Q4906.38 663.52 4893.98 674.66Q4887.58 680.41 4880.1 684.96Q4877.69 686.44 4875.19 687.75ZM2678.79 686.14Q2657.8 696.91 2631.28 696.91Q2607.64 696.91 2588.14 687.93Q2583.86 685.96 2579.78 683.55Q2570.11 677.86 2562.27 670.28Q2551.71 660.08 2544.45 646.46Q2544.36 646.29 2544.27 646.12Q2531.97 622.52 2531.97 592.5Q2531.97 562.27 2544.45 539.24Q2550.7 527.86 2559.4 518.84Q2568.31 509.61 2579.78 502.85Q2583.86 500.44 2588.14 498.47Q2607.64 489.49 2631.28 489.49Q2658.56 489.49 2679.69 500.89Q2681.44 501.83 2683.14 502.85Q2693.2 508.87 2701.34 516.86Q2711.25 526.59 2718.3 539.24Q2718.49 539.58 2718.67 539.91Q2731.3 562.71 2731.3 592.5Q2731.3 621.86 2719.37 645.09Q2719.01 645.78 2718.65 646.46Q2711.63 659.8 2701.4 669.86Q2693.42 677.7 2683.49 683.55Q2681.18 684.92 2678.79 686.14Z" fill="#FFFFFF" fill-opacity="1.000000" fill-rule="evenodd"/>
	</g>
</svg>
